X: 3210
T: Erik Ors polska från Hanebo
O: Skog, Hälsingland
R: Polska
Z: LP
M: 3/4
L: 1/16
S: efter Erik Rönnlund
B: Esbjörn Wettermark
N: Uppteckning av Esbjörn Wettermark efter inspelning av Rönnlund, [[http://halsingelatar.blogspot.se/2011/09/erik-ors-polska.html|se bloggen "Hälsingelåtar"]]
Q: 1/4=90
K: Gm
D2|:(D2<G2) G2z^F D2z^F|^F2<A2 A4 D4|B2>c2 B2AB c2zB|1 A2>G^F/ G2z^F D4:|2 A2>G^F/ G8|
|:B4 G2AG ^F2zA|c2>d2 c2>Bc/ d4|B4 G2>AG/ ^F2zA|1 d4 d8:|2 G4 G8|
(:musicend:)
(:music:)
